X: 1
T:Row, Row, Row your boat
M: 6/8
L: 1/4
Q: 1/2=100
K: G
 G3/2G3/2 | GA/2B3/2 | BA/2Bc/2 | d3/2-dz/2 | g/2g/2g/2 d/2d/2d/2 | B/2B/2B/2 G/2G/2G/2 | dc/2BA/2 | G3/2-Gz/2z/2 |]
